lib/flags/m/732.svg

<svg xmlns="http://www.w3.org/2000/svg" fill="none" viewBox="0 0 20 15"><mask id="732_svg__a" width="20" height="15" x="0" y="0" mask-type="alpha" maskUnits="userSpaceOnUse"><path fill="#fff" d="M0 0H20V15H0z"/></mask><g fill-rule="evenodd" clip-rule="evenodd" mask="url(#732_svg__a)"><path fill="#F7FCFF" d="M0 0H20V15H0V0Z"/><path fill="#272727" d="M0 0V5H20V0H0Z"/><path fill="#5EAA22" d="M0 10V15H20V10H0Z"/><path fill="#E31D1C" d="M0 0 10 7.5 0 15V0zM13.555 9.67322C13.555 9.67322 12.1332 8.81399 12.1332 7.39411 12.1332 5.97423 13.555 5.22726 13.555 5.22726 12.9186 4.8235 10.712 5.39974 10.712 7.44037 10.712 9.481 12.8979 9.85802 13.555 9.67322zM14.7053 7.07037 13.8779 6.2951 14.1636 7.28487 13.3629 7.66416 14.3464 7.98427 14.7735 9.05567 14.9602 8.06389 15.9316 8.2784 15.1966 7.56063 15.4453 6.79482 14.7053 7.07037z"/></g></svg>

<svg xmlns="http://www.w3.org/2000/svg" fill="none" viewBox="0 0 20 15"><mask id="732_svg__a" width="20" height="15" x="0" y="0" maskUnits="userSpaceOnUse"><path fill="#fff" d="M0 0h20v15H0z"/></mask><g fill-rule="evenodd" clip-rule="evenodd" mask="url(#732_svg__a)"><path fill="#F7FCFF" d="M0 0h20v15H0V0z"/><path fill="#272727" d="M0 0v5h20V0H0z"/><path fill="#5EAA22" d="M0 10v5h20v-5H0z"/><path fill="#E31D1C" d="M0 0l10 7.5L0 15V0zm13.555 9.673s-1.422-.859-1.422-2.279 1.422-2.167 1.422-2.167c-.636-.404-2.843.173-2.843 2.213 0 2.041 2.186 2.418 2.843 2.233zm1.15-2.603l-.827-.775.286.99-.801.38.983.32.428 1.07.186-.991.972.214-.735-.717.248-.766-.74.275z"/></g></svg>
